X: 1
T: Doorus Mill
M: 6/8
L: 1/8
C: J. Daly
S: K. Burke, E. Durham '97
Z: Naka J Ishii <nishii:library.umass.EDU>
D: Patrick Street's second album "Irish Times",  played by Mr. J. Daly himself.
R: Jig
K: EMin
F \
| GEE FDD | ECC DEF | GEE FDD | FEE E2F \
| GEE FDD | ECC DEF | GAB AFD | B,EE E2 |]
|: F \
| ~G2G BAG | DFA cBA | GFG AGA | Bee e2f \
| dBB ^cAA | BGG AFF | EFG  AFD | B,EE E2 :|
K: EDor
|: z \
| eBe gfe | fdf agf | eBe gfe | dBB B3 \
| eBe gfe | dcd fed | edB AGA | Bee e2 :|
|: f | dBB cAA | cBB B2f | dBB cAA | BGE E2f \
| dBB cAA | BGG AFF | EFG AFD | B,EE E2 :|
